docs/.gitbook/assets/icon-stacked-bars-3-16@dark.svg

<svg width="32" height="32" viewBox="0 0 16 16" fill="none" xmlns="http://www.w3.org/2000/svg">
<rect x="0" y="0" width="16" height="16" fill="#181c1f"/>
<path opacity="0.3" fill-rule="evenodd" clip-rule="evenodd" d="M2.75 3C2.33579 3 2 2.66421 2 2.25L2 1.75C2 1.33579 2.33579 1 2.75 1L13.25 1C13.6642 0.999999 14 1.33579 14 1.75L14 2.25C14 2.66421 13.6642 3 13.25 3L2.75 3Z" fill="#fff"/>
<path fill-rule="evenodd" clip-rule="evenodd" d="M2 14.25C2 14.6642 2.33579 15 2.75 15L13.25 15C13.6642 15 14 14.6642 14 14.25L14 13.75C14 13.3358 13.6642 13 13.25 13L2.75 13C2.33579 13 2 13.3358 2 13.75L2 14.25ZM2.75 11C2.33579 11 2 10.6642 2 10.25L2 9.75C2 9.33579 2.33579 9 2.75 9L13.25 9C13.6642 9 14 9.33579 14 9.75L14 10.25C14 10.6642 13.6642 11 13.25 11L2.75 11ZM2.75 7C2.33579 7 2 6.66421 2 6.25L2 5.75C2 5.33579 2.33579 5 2.75 5L13.25 5C13.6642 5 14 5.33579 14 5.75L14 6.25C14 6.66421 13.6642 7 13.25 7L2.75 7Z" fill="#fff"/>
</svg>

<svg xmlns="http://www.w3.org/2000/svg" width="32" height="32" fill="none" viewBox="0 0 16 16"><path fill="#181c1f" d="M0 0h16v16H0z"/><path fill="#fff" fill-rule="evenodd" d="M2.75 3A.75.75 0 0 1 2 2.25v-.5A.75.75 0 0 1 2.75 1h10.5a.75.75 0 0 1 .75.75v.5a.75.75 0 0 1-.75.75z" clip-rule="evenodd" opacity=".3"/><path fill="#fff" fill-rule="evenodd" d="M2 14.25c0 .414.336.75.75.75h10.5a.75.75 0 0 0 .75-.75v-.5a.75.75 0 0 0-.75-.75H2.75a.75.75 0 0 0-.75.75zM2.75 11a.75.75 0 0 1-.75-.75v-.5A.75.75 0 0 1 2.75 9h10.5a.75.75 0 0 1 .75.75v.5a.75.75 0 0 1-.75.75zm0-4A.75.75 0 0 1 2 6.25v-.5A.75.75 0 0 1 2.75 5h10.5a.75.75 0 0 1 .75.75v.5a.75.75 0 0 1-.75.75z" clip-rule="evenodd"/></svg>
